X: 80
T:Drunken Barnaby. JaW.080
M:6/8
Q:120
S:James Winder Ms, Lancashire, 1835-41
R:misc.
O:England
A:Wyresdale,Lancashire
N:"Oh Barnaby thow hast been drinking I can tell by thy face and thy
N:Winking"
H:1/8
Z:vmp.Chris Partington, Aug 2004
K:G
[B3g3] efg|cfe d2c:||:cde ede|cfe d2c:|!
|:g2(agfe)|a2(bagf)|g2(agfe)|d2c:|!
cGc cGc|cfe d2c:||:cBA GFE|Dfe d2c:|!
|:D>EF EFG|cde d2c:|]
